icons/linear-ele-food-fruit-apple.svg

<svg xmlns="http://www.w3.org/2000/svg" width="32px" height="32px" viewBox="0 0 32 32" version="1.1">
    <title>linear-ele-food-fruit-apple</title>
    <g id="linear-ele-food-fruit-apple" stroke-width="1" fill-rule="evenodd">
        <path d="M19.2425356,2.0298575 C19.7783305,2.16380623 20.1040912,2.70674072 19.9701425,3.24253563 C19.7513983,4.11751232 19.3002829,5.19221857 18.7121398,6.2998978 C19.4025727,6.10274199 20.1437957,6 21,6 C25.1976467,6 29,10.1480217 29,16 C29,21.982395 23.9889969,30 20.5,30 C19.4194537,30 18.6425864,29.851375 17.7908235,29.538772 L17.5036093,29.4284767 C17.4847661,29.4209394 17.0368612,29.2375865 16.9217825,29.193747 C16.5600801,29.0559556 16.3082798,29 16,29 C15.6917202,29 15.4399199,29.0559556 15.0782175,29.193747 L14.4963907,29.4284767 C13.5263016,29.8165123 12.700607,30 11.5,30 C8.01100314,30 3,21.982395 3,16 C3,10.1480217 6.80235327,6 11,6 C12.4570859,6 13.5811728,6.29755241 14.6972136,6.85557281 L15.6543468,7.36528674 C15.6773647,7.37696663 15.6987042,7.38766322 15.7185263,7.39745578 C16.8078024,5.78846687 17.7230494,3.98469696 18.0298575,2.75746437 C18.1638062,2.22166947 18.7067407,1.89590877 19.2425356,2.0298575 Z M21,8 C19.8737526,8 19.0499228,8.21807259 18.1972136,8.64442719 C17.6385379,8.97337006 17.190692,9.21695296 16.7803747,9.35836172 C16.2677527,10.0472471 15.7337274,10.6804861 15.2071068,11.2071068 C14.8165825,11.5976311 14.1834175,11.5976311 13.7928932,11.2071068 C13.4023689,10.8165825 13.4023689,10.1834175 13.7928932,9.79289322 C14.0235728,9.56221362 14.2571029,9.3061604 14.4899516,9.03099753 C14.2785111,8.92054021 14.0516441,8.79095221 13.8027864,8.64442719 C12.9500772,8.21807259 12.1262474,8 11,8 C7.94764673,8 5,11.2156146 5,16 C5,21.017605 9.36399686,28 11.5,28 C12.3216827,28 12.8716911,27.8980644 13.5095795,27.6650886 L13.7536093,27.5715233 C13.7521272,27.5721162 14.2239527,27.3789712 14.3662269,27.3247715 C14.9378578,27.1070074 15.4193909,27 16,27 C16.4976649,27 16.9225393,27.0786176 17.3937531,27.2382141 L17.6337731,27.3247715 C17.7760473,27.3789712 18.2478728,27.5721162 18.2463907,27.5715233 C18.9950516,27.8709877 19.575607,28 20.5,28 C22.6360031,28 27,21.017605 27,16 C27,11.2156146 24.0523533,8 21,8 Z" id="&#24418;&#29366;" fill-rule="nonzero" />
    </g>
</svg>

<svg xmlns="http://www.w3.org/2000/svg" viewBox="0 0 32 32"><path fill="currentColor" d="M19.243 2.03a1 1 0 0 1 .727 1.213c-.219.875-.67 1.95-1.258 3.057.69-.197 1.432-.3 2.288-.3 4.198 0 8 4.148 8 10 0 5.982-5.011 14-8.5 14-1.08 0-1.857-.149-2.71-.461l-.286-.11c-.02-.008-.467-.191-.582-.235C16.56 29.056 16.308 29 16 29c-.308 0-.56.056-.922.194l-.582.234c-.97.389-1.795.572-2.996.572C8.011 30 3 21.982 3 16c0-5.852 3.802-10 8-10 1.457 0 2.581.298 3.697.856l.957.51.065.031c1.089-1.609 2.004-3.412 2.31-4.64a1 1 0 0 1 1.214-.727M21 8c-1.126 0-1.95.218-2.803.644-.558.33-1.006.573-1.417.714a16.96 16.96 0 0 1-1.573 1.85 1 1 0 0 1-1.414-1.415c.23-.23.464-.487.697-.762-.211-.11-.438-.24-.687-.387C12.95 8.218 12.126 8 11 8c-3.052 0-6 3.216-6 8 0 5.018 4.364 12 6.5 12 .822 0 1.372-.102 2.01-.335l.244-.093c-.002 0 .47-.193.612-.247C14.938 27.107 15.42 27 16 27c.498 0 .923.079 1.394.238l.24.087c.142.054.614.247.612.247.75.299 1.33.428 2.254.428 2.136 0 6.5-6.982 6.5-12 0-4.784-2.948-8-6-8"/></svg>
